X: 23969
T: Lochiel's Welcome To Glasgow
R: jig
M: 6/8
K: Amixolydian
A>AA A>Bc|a2 e f>ec|B>BB B>ce|f2 e f>ea|
A>AA A>Bc|a2 e f>ec|e2 e e>ca|A>AA A2:|
c<ee c<ee|f2 f f>ed|c<ee c<ee|A>Bc c>BA|
c<ee c<ee|f2 f f>ec|e2 e e>ca|A>AA A2:|

